X:539
T:Nonesuch
S:Colin Hume's website,  colinhume.com  - chords can also be printed below the stave.
Q:1/2=104
M:2/2
L:1/4
N:For Cecil Sharp's version play tune 1 6 times, tune 2 twice, tune 1 once + extra B.
K:Dm
P:A
[| a | "Dm"af ga | "Dm"fe/f/ da | "Dm"af ga | f3 a |\
"F"af ga | "Dm"fe/f/ da | "F"af ga | "Dm"f2 de |
P:B
"C"e c d e | "Dm"f e/f/ d e | "Am"e c d e | "Dm"f2 d e |\
"C"e c d e | "Bb"f e/f/ d e | "Am"e c d e | "Dm"f2 d |]
N:Replace by blank line and X field
T:A la Mode de France
M:2/2
L:1/4
%%MIDI ratio 3 1
S:Colin Hume's website,  colinhume.com  - chords can also be printed below the stave.
Q:1/2=104
K:D
P:A
[| a | "D"af "Em"ga | "F#m"f>e "G"da | "D/A"af "A7"ga | "Bm"f3 a |\
"Am"af ga | "D"f>e da | "C"af ga | "D"f3 f ||
P:B
"A"eA de | "D"f>e df | "A"eA de | "D"f3f |\
"A"eA de | "Bm"f>e da | "Am"af ga | "D"f3 ||

